X:132
T:Reel 132
M:4/4
K:Gmaj
L:1/8
dc|BGGB AGGE|DEGB ABce|dBAB GBAB|GBdB A2Bc|dBAB G2AB|GEDE A2Bc|dBcA BGAG|DEGA BGG2|dBgB GBdB|GBdB G2Ac|dBge dega|bagb a2ge|dBge dBGB|cBdB c2Bc|dBGB dega|bgab g2|
